bernoullicharts/exp_x_1-x__bound.svg

<?xml version="1.0" encoding="utf-8" standalone="no"?>
<!DOCTYPE svg PUBLIC "-//W3C//DTD SVG 1.1//EN"
  "http://www.w3.org/Graphics/SVG/1.1/DTD/svg11.dtd">
<!-- Created with matplotlib (https://matplotlib.org/) -->
<svg height="345.6pt" version="1.1" viewBox="0 0 460.8 345.6" width="460.8pt" xmlns="http://www.w3.org/2000/svg" xmlns:xlink="http://www.w3.org/1999/xlink">
 <defs>
  <style type="text/css">
*{stroke-linecap:butt;stroke-linejoin:round;}
  </style>
 </defs>
 <g id="figure_1">
  <g id="patch_1">
   <path d="M 0 345.6 
L 460.8 345.6 
L 460.8 0 
L 0 0 
z
" style="fill:#ffffff;"/>
  </g>
  <g id="axes_1">
   <g id="patch_2">
    <path d="M 57.6 307.584 
L 414.72 307.584 
L 414.72 41.472 
L 57.6 41.472 
z
" style="fill:#ffffff;"/>
   </g>
   <g id="matplotlib.axis_1">
    <g id="xtick_1">
     <g id="line2d_1">
      <defs>
       <path d="M 0 0 
L 0 3.5 
" id="mdad50a8376" style="stroke:#000000;stroke-width:0.8;"/>
      </defs>
      <g>
       <use style="stroke:#000000;stroke-width:0.8;" x="73.800255" xlink:href="#mdad50a8376" y="307.584"/>
      </g>
     </g>
     <g id="text_1">
      <text style="font-family:DejaVu Sans;font-size:10px;font-style:normal;font-weight:normal;text-anchor:middle;" transform="rotate(-0, 73.800255, 322.182437)" x="73.800255" y="322.182437">0.0</text>
     </g>
    </g>
    <g id="xtick_2">
     <g id="line2d_2">
      <g>
       <use style="stroke:#000000;stroke-width:0.8;" x="138.744153" xlink:href="#mdad50a8376" y="307.584"/>
      </g>
     </g>
     <g id="text_2">
      <text style="font-family:DejaVu Sans;font-size:10px;font-style:normal;font-weight:normal;text-anchor:middle;" transform="rotate(-0, 138.744153, 322.182437)" x="138.744153" y="322.182437">0.2</text>
     </g>
    </g>
    <g id="xtick_3">
     <g id="line2d_3">
      <g>
       <use style="stroke:#000000;stroke-width:0.8;" x="203.688051" xlink:href="#mdad50a8376" y="307.584"/>
      </g>
     </g>
     <g id="text_3">
      <text style="font-family:DejaVu Sans;font-size:10px;font-style:normal;font-weight:normal;text-anchor:middle;" transform="rotate(-0, 203.688051, 322.182437)" x="203.688051" y="322.182437">0.4</text>
     </g>
    </g>
    <g id="xtick_4">
     <g id="line2d_4">
      <g>
       <use style="stroke:#000000;stroke-width:0.8;" x="268.631949" xlink:href="#mdad50a8376" y="307.584"/>
      </g>
     </g>
     <g id="text_4">
      <text style="font-family:DejaVu Sans;font-size:10px;font-style:normal;font-weight:normal;text-anchor:middle;" transform="rotate(-0, 268.631949, 322.182437)" x="268.631949" y="322.182437">0.6</text>
     </g>
    </g>
    <g id="xtick_5">
     <g id="line2d_5">
      <g>
       <use style="stroke:#000000;stroke-width:0.8;" x="333.575847" xlink:href="#mdad50a8376" y="307.584"/>
      </g>
     </g>
     <g id="text_5">
      <text style="font-family:DejaVu Sans;font-size:10px;font-style:normal;font-weight:normal;text-anchor:middle;" transform="rotate(-0, 333.575847, 322.182437)" x="333.575847" y="322.182437">0.8</text>
     </g>
    </g>
    <g id="xtick_6">
     <g id="line2d_6">
      <g>
       <use style="stroke:#000000;stroke-width:0.8;" x="398.519745" xlink:href="#mdad50a8376" y="307.584"/>
      </g>
     </g>
     <g id="text_6">
      <text style="font-family:DejaVu Sans;font-size:10px;font-style:normal;font-weight:normal;text-anchor:middle;" transform="rotate(-0, 398.519745, 322.182437)" x="398.519745" y="322.182437">1.0</text>
     </g>
    </g>
    <g id="text_7">
     <text style="font-family:DejaVu Sans;font-size:10px;font-style:normal;font-weight:normal;text-anchor:middle;" transform="rotate(-0, 236.16, 335.860562)" x="236.16" y="335.860562">Input Coin's Heads Probability (λ)</text>
    </g>
   </g>
   <g id="matplotlib.axis_2">
    <g id="ytick_1">
     <g id="line2d_7">
      <defs>
       <path d="M 0 0 
L -3.5 0 
" id="maeae4c4016" style="stroke:#000000;stroke-width:0.8;"/>
      </defs>
      <g>
       <use style="stroke:#000000;stroke-width:0.8;" x="57.6" xlink:href="#maeae4c4016" y="295.505687"/>
      </g>
     </g>
     <g id="text_8">
      <text style="font-family:DejaVu Sans;font-size:10px;font-style:normal;font-weight:normal;text-anchor:end;" transform="rotate(-0, 50.6, 299.304906)" x="50.6" y="299.304906">0.0</text>
     </g>
    </g>
    <g id="ytick_2">
     <g id="line2d_8">
      <g>
       <use style="stroke:#000000;stroke-width:0.8;" x="57.6" xlink:href="#maeae4c4016" y="251.291929"/>
      </g>
     </g>
     <g id="text_9">
      <text style="font-family:DejaVu Sans;font-size:10px;font-style:normal;font-weight:normal;text-anchor:end;" transform="rotate(-0, 50.6, 255.091147)" x="50.6" y="255.091147">0.5</text>
     </g>
    </g>
    <g id="ytick_3">
     <g id="line2d_9">
      <g>
       <use style="stroke:#000000;stroke-width:0.8;" x="57.6" xlink:href="#maeae4c4016" y="207.07817"/>
      </g>
     </g>
     <g id="text_10">
      <text style="font-family:DejaVu Sans;font-size:10px;font-style:normal;font-weight:normal;text-anchor:end;" transform="rotate(-0, 50.6, 210.877389)" x="50.6" y="210.877389">1.0</text>
     </g>
    </g>
    <g id="ytick_4">
     <g id="line2d_10">
      <g>
       <use style="stroke:#000000;stroke-width:0.8;" x="57.6" xlink:href="#maeae4c4016" y="162.864411"/>
      </g>
     </g>
     <g id="text_11">
      <text style="font-family:DejaVu Sans;font-size:10px;font-style:normal;font-weight:normal;text-anchor:end;" transform="rotate(-0, 50.6, 166.66363)" x="50.6" y="166.66363">1.5</text>
     </g>
    </g>
    <g id="ytick_5">
     <g id="line2d_11">
      <g>
       <use style="stroke:#000000;stroke-width:0.8;" x="57.6" xlink:href="#maeae4c4016" y="118.650653"/>
      </g>
     </g>
     <g id="text_12">
      <text style="font-family:DejaVu Sans;font-size:10px;font-style:normal;font-weight:normal;text-anchor:end;" transform="rotate(-0, 50.6, 122.449871)" x="50.6" y="122.449871">2.0</text>
     </g>
    </g>
    <g id="ytick_6">
     <g id="line2d_12">
      <g>
       <use style="stroke:#000000;stroke-width:0.8;" x="57.6" xlink:href="#maeae4c4016" y="74.436894"/>
      </g>
     </g>
     <g id="text_13">
      <text style="font-family:DejaVu Sans;font-size:10px;font-style:normal;font-weight:normal;text-anchor:end;" transform="rotate(-0, 50.6, 78.236113)" x="50.6" y="78.236113">2.5</text>
     </g>
    </g>
    <g id="text_14">
     <text style="font-family:DejaVu Sans;font-size:10px;font-style:normal;font-weight:normal;text-anchor:middle;" transform="rotate(-90, 28.617187, 174.528)" x="28.617187" y="174.528">Coin Flips Needed</text>
    </g>
   </g>
   <g id="line2d_13">
    <path clip-path="url(#p9cec65f3be)" d="M 73.832727 295.488 
L 77.112066 293.695806 
L 80.391405 291.891557 
L 83.670744 290.075221 
L 86.950083 288.24677 
L 90.229421 286.406173 
L 93.50876 284.5534 
L 96.788099 282.688421 
L 100.067438 280.811206 
L 103.346777 278.921726 
L 106.626116 277.019951 
L 109.905455 275.105851 
L 113.184793 273.179397 
L 116.464132 271.240559 
L 119.743471 269.289309 
L 123.02281 267.325616 
L 126.302149 265.349453 
L 129.581488 263.360789 
L 132.860826 261.359596 
L 136.140165 259.345844 
L 139.419504 257.319506 
L 142.698843 255.280552 
L 145.978182 253.228954 
L 149.257521 251.164683 
L 152.53686 249.087711 
L 155.816198 246.99801 
L 159.095537 244.89555 
L 162.374876 242.780305 
L 165.654215 240.652245 
L 168.933554 238.511344 
L 172.212893 236.357572 
L 175.492231 234.190903 
L 178.77157 232.011308 
L 182.050909 229.81876 
L 185.330248 227.613231 
L 188.609587 225.394694 
L 191.888926 223.163122 
L 195.168264 220.918486 
L 198.447603 218.660761 
L 201.726942 216.389919 
L 205.006281 214.105932 
L 208.28562 211.808775 
L 211.564959 209.498419 
L 214.844298 207.174839 
L 218.123636 204.838008 
L 221.402975 202.487899 
L 224.682314 200.124486 
L 227.961653 197.747743 
L 231.240992 195.357642 
L 234.520331 192.954159 
L 237.799669 190.537266 
L 241.079008 188.106939 
L 244.358347 185.66315 
L 247.637686 183.205875 
L 250.917025 180.735087 
L 254.196364 178.250761 
L 257.475702 175.752871 
L 260.755041 173.241393 
L 264.03438 170.7163 
L 267.313719 168.177567 
L 270.593058 165.62517 
L 273.872397 163.059083 
L 277.151736 160.479281 
L 280.431074 157.885739 
L 283.710413 155.278433 
L 286.989752 152.657338 
L 290.269091 150.022429 
L 293.54843 147.373682 
L 296.827769 144.711072 
L 300.107107 142.034576 
L 303.386446 139.344168 
L 306.665785 136.639825 
L 309.945124 133.921523 
L 313.224463 131.189238 
L 316.503802 128.442945 
L 319.78314 125.682622 
L 323.062479 122.908245 
L 326.341818 120.119789 
L 329.621157 117.317233 
L 332.900496 114.500551 
L 336.179835 111.669722 
L 339.459174 108.824721 
L 342.738512 105.965526 
L 346.017851 103.092114 
L 349.29719 100.204461 
L 352.576529 97.302546 
L 355.855868 94.386345 
L 359.135207 91.455835 
L 362.414545 88.510995 
L 365.693884 85.551802 
L 368.973223 82.578234 
L 372.252562 79.590267 
L 375.531901 76.587881 
L 378.81124 73.571052 
L 382.090579 70.53976 
L 385.369917 67.493982 
L 388.649256 64.433697 
L 391.928595 61.358882 
L 395.207934 58.269517 
L 398.487273 55.16558 
" style="fill:none;stroke:#1f77b4;stroke-linecap:square;stroke-width:1.5;"/>
   </g>
   <g id="line2d_14">
    <path clip-path="url(#p9cec65f3be)" d="M 73.832727 207.07817 
L 77.112066 205.30962 
L 80.391405 205.132765 
L 83.670744 204.95591 
L 86.950083 204.071634 
L 90.229421 202.656794 
L 93.50876 203.010504 
L 96.788099 199.650259 
L 100.067438 198.412273 
L 103.346777 199.650259 
L 106.626116 198.058563 
L 109.905455 196.466868 
L 113.184793 194.875173 
L 116.464132 196.466868 
L 119.743471 195.228883 
L 123.02281 190.100087 
L 126.302149 190.276942 
L 129.581488 191.514927 
L 132.860826 189.569522 
L 136.140165 189.392667 
L 139.419504 188.862101 
L 142.698843 185.148146 
L 145.978182 180.903625 
L 149.257521 184.087016 
L 152.53686 184.794436 
L 155.816198 187.093551 
L 159.095537 178.95822 
L 162.374876 180.196205 
L 165.654215 175.244264 
L 168.933554 178.604509 
L 172.212893 176.128539 
L 175.492231 170.292323 
L 178.77157 172.414583 
L 182.050909 173.652568 
L 185.330248 171.530308 
L 188.609587 173.652568 
L 191.888926 165.694092 
L 195.168264 167.993207 
L 198.447603 166.932077 
L 201.726942 165.163527 
L 205.006281 162.156991 
L 208.28562 161.272716 
L 211.564959 158.796746 
L 214.844298 159.327311 
L 218.123636 158.619891 
L 221.402975 156.320775 
L 224.682314 153.137384 
L 227.961653 159.857876 
L 231.240992 157.735615 
L 234.520331 151.368834 
L 237.799669 145.886328 
L 241.079008 146.947458 
L 244.358347 148.008588 
L 247.637686 147.831733 
L 250.917025 147.301168 
L 254.196364 144.294633 
L 257.475702 137.750996 
L 260.755041 140.580677 
L 264.03438 135.098171 
L 267.313719 136.336156 
L 270.593058 140.403822 
L 273.872397 137.927851 
L 277.151736 128.554535 
L 280.431074 129.0851 
L 283.710413 125.547999 
L 286.989752 122.187753 
L 290.269091 125.724854 
L 293.54843 120.242348 
L 296.827769 117.766378 
L 300.107107 118.473798 
L 303.386446 120.949768 
L 306.665785 116.705247 
L 309.945124 109.807901 
L 313.224463 109.277336 
L 316.503802 108.923626 
L 319.78314 109.631046 
L 323.062479 104.85596 
L 326.341818 100.611439 
L 329.621157 102.37999 
L 332.900496 99.904019 
L 336.179835 102.7337 
L 339.459174 93.714093 
L 342.738512 92.652963 
L 346.017851 92.299253 
L 349.29719 88.585297 
L 352.576529 90.884412 
L 355.855868 85.755616 
L 359.135207 86.639891 
L 362.414545 82.572226 
L 365.693884 77.266575 
L 368.973223 70.546083 
L 372.252562 67.185838 
L 375.531901 73.375764 
L 378.81124 68.070113 
L 382.090579 74.967459 
L 385.369917 60.819056 
L 388.649256 62.410752 
L 391.928595 60.465346 
L 395.207934 53.568 
L 398.487273 56.04397 
" style="fill:none;stroke:#ff7f0e;stroke-linecap:square;stroke-width:1.5;"/>
   </g>
   <g id="patch_3">
    <path d="M 57.6 307.584 
L 57.6 41.472 
" style="fill:none;stroke:#000000;stroke-linecap:square;stroke-linejoin:miter;stroke-width:0.8;"/>
   </g>
   <g id="patch_4">
    <path d="M 414.72 307.584 
L 414.72 41.472 
" style="fill:none;stroke:#000000;stroke-linecap:square;stroke-linejoin:miter;stroke-width:0.8;"/>
   </g>
   <g id="patch_5">
    <path d="M 57.6 307.584 
L 414.72 307.584 
" style="fill:none;stroke:#000000;stroke-linecap:square;stroke-linejoin:miter;stroke-width:0.8;"/>
   </g>
   <g id="patch_6">
    <path d="M 57.6 41.472 
L 414.72 41.472 
" style="fill:none;stroke:#000000;stroke-linecap:square;stroke-linejoin:miter;stroke-width:0.8;"/>
   </g>
   <g id="text_15">
    <text style="font-family:DejaVu Sans;font-size:12px;font-style:normal;font-weight:normal;text-anchor:middle;" transform="rotate(-0, 236.16, 35.472)" x="236.16" y="35.472">Coin Flips for exp(x)*(1-x)</text>
   </g>
   <g id="legend_1">
    <g id="patch_7">
     <path d="M 64.6 78.82825 
L 252.425 78.82825 
Q 254.425 78.82825 254.425 76.82825 
L 254.425 48.472 
Q 254.425 46.472 252.425 46.472 
L 64.6 46.472 
Q 62.6 46.472 62.6 48.472 
L 62.6 76.82825 
Q 62.6 78.82825 64.6 78.82825 
z
" style="fill:#ffffff;opacity:0.8;stroke:#cccccc;stroke-linejoin:miter;"/>
    </g>
    <g id="line2d_15">
     <path d="M 66.6 54.570437 
L 86.6 54.570437 
" style="fill:none;stroke:#1f77b4;stroke-linecap:square;stroke-width:1.5;"/>
    </g>
    <g id="line2d_16"/>
    <g id="text_16">
     <text style="font-family:DejaVu Sans;font-size:10px;font-style:normal;font-weight:normal;text-anchor:start;" transform="rotate(-0, 94.6, 58.070437)" x="94.6" y="58.070437">Coin Flip Lower Bound</text>
    </g>
    <g id="line2d_17">
     <path d="M 66.6 69.248562 
L 86.6 69.248562 
" style="fill:none;stroke:#ff7f0e;stroke-linecap:square;stroke-width:1.5;"/>
    </g>
    <g id="line2d_18"/>
    <g id="text_17">
     <text style="font-family:DejaVu Sans;font-size:10px;font-style:normal;font-weight:normal;text-anchor:start;" transform="rotate(-0, 94.6, 72.748562)" x="94.6" y="72.748562">Avg. Coins Flipped exp(x)*(1-x)</text>
    </g>
   </g>
  </g>
 </g>
 <defs>
  <clipPath id="p9cec65f3be">
   <rect height="266.112" width="357.12" x="57.6" y="41.472"/>
  </clipPath>
 </defs>
</svg>

<svg height="460.8" viewBox="0 0 460.8 345.6" width="614.4" xmlns="http://www.w3.org/2000/svg" xmlns:xlink="http://www.w3.org/1999/xlink"><defs><style>*{stroke-linecap:butt;stroke-linejoin:round}</style></defs><g id="figure_1"><path d="M0 345.6h460.8V0H0z" fill="#fff" id="patch_1"/><g id="axes_1"><path d="M57.6 307.584h357.12V41.472H57.6z" fill="#fff" id="patch_2"/><g id="matplotlib.axis_1"><g id="xtick_1"><g id="line2d_1"><defs><path d="M0 0v3.5" id="mdad50a8376" stroke="#000" stroke-width=".8"/></defs><use x="73.8" xlink:href="#mdad50a8376" y="307.584" stroke="#000" stroke-width=".8"/></g><text x="73.8" y="322.182" font-family="DejaVu Sans" font-size="10" font-weight="400" text-anchor="middle" id="text_1">0.0</text></g><g id="xtick_2"><use x="138.744" xlink:href="#mdad50a8376" y="307.584" stroke="#000" stroke-width=".8" id="line2d_2"/><text x="138.744" y="322.182" font-family="DejaVu Sans" font-size="10" font-weight="400" text-anchor="middle" id="text_2">0.2</text></g><g id="xtick_3"><use x="203.688" xlink:href="#mdad50a8376" y="307.584" stroke="#000" stroke-width=".8" id="line2d_3"/><text x="203.688" y="322.182" font-family="DejaVu Sans" font-size="10" font-weight="400" text-anchor="middle" id="text_3">0.4</text></g><g id="xtick_4"><use x="268.632" xlink:href="#mdad50a8376" y="307.584" stroke="#000" stroke-width=".8" id="line2d_4"/><text x="268.632" y="322.182" font-family="DejaVu Sans" font-size="10" font-weight="400" text-anchor="middle" id="text_4">0.6</text></g><g id="xtick_5"><use x="333.576" xlink:href="#mdad50a8376" y="307.584" stroke="#000" stroke-width=".8" id="line2d_5"/><text x="333.576" y="322.182" font-family="DejaVu Sans" font-size="10" font-weight="400" text-anchor="middle" id="text_5">0.8</text></g><g id="xtick_6"><use x="398.52" xlink:href="#mdad50a8376" y="307.584" stroke="#000" stroke-width=".8" id="line2d_6"/><text x="398.52" y="322.182" font-family="DejaVu Sans" font-size="10" font-weight="400" text-anchor="middle" id="text_6">1.0</text></g><text x="236.16" y="335.861" font-family="DejaVu Sans" font-size="10" font-weight="400" text-anchor="middle" id="text_7">Input Coin&apos;s Heads Probability (λ)</text></g><g id="matplotlib.axis_2"><g id="ytick_1"><g id="line2d_7"><defs><path d="M0 0h-3.5" id="maeae4c4016" stroke="#000" stroke-width=".8"/></defs><use x="57.6" xlink:href="#maeae4c4016" y="295.506" stroke="#000" stroke-width=".8"/></g><text x="50.6" y="299.305" font-family="DejaVu Sans" font-size="10" font-weight="400" text-anchor="end" id="text_8">0.0</text></g><g id="ytick_2"><use x="57.6" xlink:href="#maeae4c4016" y="251.292" stroke="#000" stroke-width=".8" id="line2d_8"/><text x="50.6" y="255.091" font-family="DejaVu Sans" font-size="10" font-weight="400" text-anchor="end" id="text_9">0.5</text></g><g id="ytick_3"><use x="57.6" xlink:href="#maeae4c4016" y="207.078" stroke="#000" stroke-width=".8" id="line2d_9"/><text x="50.6" y="210.877" font-family="DejaVu Sans" font-size="10" font-weight="400" text-anchor="end" id="text_10">1.0</text></g><g id="ytick_4"><use x="57.6" xlink:href="#maeae4c4016" y="162.864" stroke="#000" stroke-width=".8" id="line2d_10"/><text x="50.6" y="166.664" font-family="DejaVu Sans" font-size="10" font-weight="400" text-anchor="end" id="text_11">1.5</text></g><g id="ytick_5"><use x="57.6" xlink:href="#maeae4c4016" y="118.651" stroke="#000" stroke-width=".8" id="line2d_11"/><text x="50.6" y="122.45" font-family="DejaVu Sans" font-size="10" font-weight="400" text-anchor="end" id="text_12">2.0</text></g><g id="ytick_6"><use x="57.6" xlink:href="#maeae4c4016" y="74.437" stroke="#000" stroke-width=".8" id="line2d_12"/><text x="50.6" y="78.236" font-family="DejaVu Sans" font-size="10" font-weight="400" text-anchor="end" id="text_13">2.5</text></g><text transform="rotate(-90 28.617 174.528)" x="28.617" y="174.528" font-family="DejaVu Sans" font-size="10" font-weight="400" text-anchor="middle" id="text_14">Coin Flips Needed</text></g><path clip-path="url(#p9cec65f3be)" d="M73.833 295.488l3.28-1.792 3.278-1.804 3.28-1.817 3.28-1.828 3.278-1.84 3.28-1.854 3.28-1.865 3.278-1.877 3.28-1.89 3.28-1.901 3.278-1.914 3.28-1.927 3.28-1.938 3.278-1.952 3.28-1.963 3.28-1.977 3.278-1.988 3.28-2.001 3.28-2.014 3.279-2.026 3.279-2.04 3.28-2.051 3.279-2.064 3.279-2.077 3.28-2.09 3.279-2.102 3.279-2.116 3.28-2.128 3.279-2.14 3.279-2.154 3.28-2.167 3.279-2.18 3.279-2.192 3.28-2.206 3.279-2.218 3.279-2.232 3.28-2.245 3.279-2.257 3.279-2.271 3.28-2.284 3.279-2.297 3.279-2.31 3.28-2.324 3.279-2.337 3.279-2.35 3.28-2.364 3.279-2.376 3.279-2.39 3.28-2.404 3.279-2.417 3.279-2.43 3.28-2.444 3.279-2.457 3.279-2.47 3.28-2.485 3.279-2.498 3.279-2.512 3.28-2.525 3.279-2.538 3.28-2.553 3.278-2.566 3.28-2.58 3.28-2.593 3.278-2.608 3.28-2.62 3.28-2.636 3.278-2.648 3.28-2.663 3.28-2.676 3.278-2.69 3.28-2.705 3.28-2.718 3.278-2.733 3.28-2.746 3.28-2.76 3.278-2.775 3.28-2.788 3.28-2.803 3.278-2.816 3.28-2.831 3.28-2.845 3.279-2.86 3.279-2.873 3.28-2.888 3.279-2.901 3.279-2.917 3.28-2.93 3.279-2.945 3.279-2.96 3.28-2.973 3.279-2.988 3.279-3.002 3.28-3.017 3.279-3.031 3.279-3.046 3.28-3.06 3.279-3.075 3.279-3.09 3.28-3.103" fill="none" stroke="#1f77b4" stroke-linecap="square" stroke-width="1.5" id="line2d_13"/><path clip-path="url(#p9cec65f3be)" d="M73.833 207.078l3.28-1.768 3.278-.177 3.28-.177 3.28-.884 3.278-1.415 3.28.354 3.28-3.36 3.278-1.239 3.28 1.238 3.28-1.591 3.278-1.592 3.28-1.592 3.28 1.592 3.278-1.238 3.28-5.129 3.28.177 3.278 1.238 3.28-1.945 3.28-.177 3.279-.53 3.279-3.715 3.28-4.244 3.279 3.183 3.279.707 3.28 2.3 3.279-8.136 3.279 1.238 3.28-4.952 3.279 3.36 3.279-2.475 3.28-5.837 3.279 2.123 3.279 1.238 3.28-2.123 3.279 2.123 3.279-7.959 3.28 2.3 3.279-1.062 3.279-1.768 3.28-3.007 3.279-.884 3.279-2.476 3.28.53 3.279-.707 3.279-2.3 3.28-3.183 3.279 6.72 3.279-2.121 3.28-6.367 3.279-5.483 3.279 1.061 3.28 1.062 3.279-.177 3.279-.53 3.28-3.007 3.279-6.544 3.279 2.83 3.28-5.483 3.279 1.238 3.28 4.068 3.278-2.476 3.28-9.373 3.28.53 3.278-3.537 3.28-3.36 3.28 3.537 3.278-5.483 3.28-2.476 3.28.708 3.278 2.476 3.28-4.245 3.28-6.897 3.278-.53 3.28-.354 3.28.707 3.278-4.775 3.28-4.245 3.28 1.769 3.278-2.476 3.28 2.83 3.28-9.02 3.279-1.061 3.279-.354 3.28-3.714 3.279 2.3 3.279-5.13 3.28.885 3.279-4.068 3.279-5.305 3.28-6.72 3.279-3.361 3.279 6.19 3.28-5.306 3.279 6.897 3.279-14.148 3.28 1.592 3.279-1.946 3.279-6.897 3.28 2.476" fill="none" stroke="#ff7f0e" stroke-linecap="square" stroke-width="1.5" id="line2d_14"/><path d="M57.6 307.584V41.472" fill="none" stroke="#000" stroke-linecap="square" stroke-width=".8" id="patch_3"/><path d="M414.72 307.584V41.472" fill="none" stroke="#000" stroke-linecap="square" stroke-width=".8" id="patch_4"/><path d="M57.6 307.584h357.12" fill="none" stroke="#000" stroke-linecap="square" stroke-width=".8" id="patch_5"/><path d="M57.6 41.472h357.12" fill="none" stroke="#000" stroke-linecap="square" stroke-width=".8" id="patch_6"/><text x="236.16" y="35.472" font-family="DejaVu Sans" font-size="12" font-weight="400" text-anchor="middle" id="text_15">Coin Flips for exp(x)*(1-x)</text><g id="legend_1"><path d="M64.6 78.828h187.825q2 0 2-2V48.472q0-2-2-2H64.6q-2 0-2 2v28.356q0 2 2 2z" fill="#fff" opacity=".8" stroke="#ccc" id="patch_7"/><path d="M66.6 54.57h20" fill="none" stroke="#1f77b4" stroke-linecap="square" stroke-width="1.5" id="line2d_15"/><text x="94.6" y="58.07" font-family="DejaVu Sans" font-size="10" font-weight="400" id="text_16">Coin Flip Lower Bound</text><path d="M66.6 69.249h20" fill="none" stroke="#ff7f0e" stroke-linecap="square" stroke-width="1.5" id="line2d_17"/><text x="94.6" y="72.749" font-family="DejaVu Sans" font-size="10" font-weight="400" id="text_17">Avg. Coins Flipped exp(x)*(1-x)</text></g></g></g><defs><clipPath id="p9cec65f3be"><path d="M57.6 41.472h357.12v266.112H57.6z"/></clipPath></defs></svg>
